X:1
T:Title
%%score { 1 | 2 }
L:1/8
Q:1/4=114
M:3/4
K:D
V:1 treble nm="Grand Piano"
V:2 bass 
V:1
 [FA]3 [EG] F2 | F2 E2 D2 | d2 c2 B2 | A4 z2 | B2 E2 F2 | G3 A B2 | [GB]2 [FA]2 [EG]2 | [DF]4 z2 | %8
w: J.~H.~Rosecrans * *||||||||
 [FA]3 [EG] F2 | F2 E2 D2 | d2 c2 B2 | A4 z2 | B2 d2 B2 | [DFA]3 [A,EG] [A,DF]2 | %14
w: ||||||
 [A,FA]2 [A,EG]2[K:bass] [G,CE]2 | [F,D]4 z2 | [CE]3 [DF] [EG]2 | [EG]2 F2 D2 | B2 B2 B2 | %19
w: |||||
 [FA]4 [Fd]2 | c3 d e2 | [Fd]2 A2 F2 | F2 [DF]2 [D^G]2 | [CA]4 z2 | [FA]3 [EG] F2 | F2 E2 D2 | %26
w: |||||||
 d2 c2 B2 | A4 z2 | B2 d2 B2 | [DFA]3 [A,EG] [A,DF]2 | [A,FA]2 [A,EG]2[K:bass] [G,CE]2 | %31
w: |||||
[M:7/4] [F,D]4 z2 z2 z2 z4 |] %32
w: |
V:2
 [D,D]3 [D,A,] [D,A,D]2 | [D,A,D]2 [D,G,D]2 [D,F,]2 | [D,B,D]2 [D,A,D]2 [D,G,D]2 | [D,F,D]4 z2 | %4
 [A,C]2 [A,C]2 [A,D]2 | [A,E]3 [A,F] [A,G]2 | [A,,A,]2 [A,,A,]2 [A,,A,]2 | [D,A,]4 z2 | %8
 [D,D]3 [D,A,] [D,A,D]2 | [D,A,D]2 [D,G,D]2 [D,F,]2 | [D,B,D]2 [D,A,D]2 [D,G,D]2 | [D,F,D]4 z2 | %12
 [G,DG]2 [G,B,G]2 [G,DG]2 | D,3 D, D,2 | A,,2 A,,2 A,,2 | D,4 z2 | [A,,A,]3 [A,,A,] [A,,A,]2 | %17
 [D,A,]2 [D,A,D]2 [F,A,]2 | [G,D]2 [G,D]2 [G,DG]2 | [D,D]4 [D,A,]2 | [A,E]3 [A,F] [A,G]2 | %21
 [D,A,]2 A,2 F,2 | [D,A,]2 [B,,B,]2 [E,B,]2 | [A,,A,]4 z2 | [D,D]3 [D,A,] [D,A,D]2 | %25
 [D,A,D]2 [D,G,D]2 [D,F,]2 | [D,B,D]2 [D,A,D]2 [D,G,D]2 | [D,F,D]4 z2 | [G,DG]2 [G,B,G]2 [G,DG]2 | %29
 D,3 D, D,2 | A,,2 A,,2 A,,2 |[M:7/4] D,4 z2 z2 z2 z4 |] %32

